**kern	**silbe
*ICvox	*
*e-:	*
*M4/4	*
*clefF4	*
r;	.
=1	=1
1r	.
=2	=2
1r	.
=3	=3
1r	.
=4	=4
1r	.
=5	=5
1r	.
=6	=6
1r	.
=7	=7
1r	.
=8	=8
1r	.
=9	=9
2.r	.
8E-	Let
8E-	me
=10	=10
8G-	take
8G-	you
8G-	on
8G-	a
4E-	trip`
4r	.
=11	=11
2r	.
8r	.
8E-	a-
8E-	-round
8E-	the
=12	=12
4G-	world
4G-	and
4E-	back;
4r	.
=13	=13
2r	.
8r	.
8E-	and
8E-	you
[8G-	won't
=14	=14
8G-]	_
4G-	have
8G-	to
8E-	move.
8E-	you
8E-	just
[8G-	sit
=15	=15
8G-]	_
4.E-	still.
2r	.
=16	=16
1r	.
=17	=17
2r	.
8r	.
8E-	Now
8E-	let
8E-	your
=18	=18
4G-	mind
8G-	do
8G-	the
4E-	walk-
4G-	-ing;
=19	=19
2r	.
8r	.
8E-	And
8E-	let
8E-	my
=20	=20
8G-	bo-
8G-	-dy
8G-	do
8G-	the
4D-	talk-
[4E-	-ing.
=21	=21
4E-]	_
2r	.
8E-	Let
8E-	me
=22	=22
8G-	show
8G-	you
8G-	the
4E-	world
8E-	in
8G-	my
[8E-	eyes.
=23	=23
2E-]	_
2r	.
=24	=24
1r	.
=25	=25
1r	.
=26	=26
1r	.
=27	=27
1r	.
=28	=28
1r	.
=29	=29
1r	.
=30	=30
1r	.
=31	=31
1r	.
=32	=32
1r	.
=33	=33
4.r	.
8E-	I'll
8E-	take
8E-	you
8E-	to
8E-	the
=34	=34
4G-	high-
4G-	-est
4E-	moun-
4G-	-tain,
=35	=35
4r	.
8G-	To
8E-	the
4G-	depths
8G-	of
8E-	the
=36	=36
4G-	dee-
4G-	-pest
4E-	sea;
4r	.
=37	=37
2r	.
8r	.
8E-	And
8E-	we
[8G-	won't
=38	=38
8G-]	_
4G-	need
8G-	a
4E-	map.
8E-	be-
[8G-	-lieve
=39	=39
8G-]	_
4.E-	me.
2r	.
=40	=40
1r	.
=41	=41
2r	.
8r	.
8E-	Now
8E-	let
8E-	my
=42	=42
8G-	bo-
8G-	-dy
8G-	do
8G-	the
4E-	mov-
4G-	-ing;
=43	=43
2r	.
8r	.
8E-	And
8E-	let
8E-	my
=44	=44
4G-	hands
8G-	do
8G-	the
4D-	sooth-
[4E-	-ing.
=45	=45
16E-]	_
16G-	_
8E-	_
2r	.
8E-	Let
8E-	me
=46	=46
8G-	show
8G-	you
8G-	the
4E-	world
8E-	in
8G-	my
[8E-	eyes.
=47	=47
2E-]	_
2r	.
=48	=48
1r	.
=49	=49
1r	.
=50	=50
1r	.
=51	=51
4r	.
4G-	That's
4.C-	all
[8G-	there
=52	=52
8G-]	_
4.BB-	is.
2r	.
=53	=53
8G-	No-
4F	-thing
4BB-	more
4G-	than
[8F	you
=54	=54
8F]	_
4BB-	can
4G-	feel
4E-	now.
[8G-	That's
=55	=55
8G-]	_
4E-	all
4A-	there
4.E-	is.
=56	=56
1r	.
=57	=57
1r	.
=58	=58
1r	.
=59	=59
1r	.
=60	=60
1r	.
=61	=61
1r	.
=62	=62
1r	.
=63	=63
1r	.
=64	=64
2.r	.
8E-	Let
8E-	me
=65	=65
8G-	put
8G-	you
8G-	on
8G-	a
4E-	ship,
4r	.
=66	=66
2.r	.
8E-	On
8E-	a
=67	=67
4G-	long
4G-	long
4E-	trip|
4r	.
=68	=68
2..r	.
[8G-	your
=69	=69
8G-]	_
4G-	lips
4E-	close
4E-	to
[8G-	my
=70	=70
8G-]	_
4.E-	lips.
2r	.
=71	=71
1r	.
=72	=72
2.r	.
8E-	All
8E-	the
=73	=73
8G-	is-
8G-	-lands
8G-	in
8G-	the
4E-	o-
[4G-	-cean.
=74	=74
4G-]	_
2r	.
8E-	All
8E-	the
=75	=75
8G-	heav-
8G-	-ens
4G-	in
4D-	mo-
[4E-	-tion.
=76	=76
4E-]	_
2r	.
8E-	Let
8E-	me
=77	=77
8G-	show
8G-	you
8G-	the
4E-	world
8E-	in
8G-	my
[8E-	eyes.
=78	=78
2E-]	_
2r	.
=79	=79
1r	.
=80	=80
1r	.
=81	=81
1r	.
=82	=82
4r	.
4G-	That's
4.C-	all
[8G-	there
=83	=83
8G-]	_
4.BB-	is.
2r	.
=84	=84
8G-	No-
4F	-thing
4BB-	more
4G-	than
[8F	you
=85	=85
8F]	_
4BB-	can
4G-	feel
4E-	now.
[8G-	That's
=86	=86
8G-]	_
4E-	all
4A-	there
4.E-	is.
=87	=87
1r	.
=88	=88
1r	.
=89	=89
1r	.
=90	=90
1r	.
=91	=91
1r	.
=92	=92
1r	.
=93	=93
1r	.
=94	=94
1r	.
=95	=95
2.r	.
8E-	Let
8E-	me
=96	=96
8G-	show
8G-	you
8G-	the
4E-	world
8E-	in
8G-	my
[8E-	eyes.
=97	=97
2E-]	_
2r	.
=98	=98
1r	.
=99	=99
2.r	.
8E-	Let
8E-	me
=100	=100
8G-	show
8G-	you
8G-	the
4E-	world
8E-	in
8G-	my
[8E-	eyes.
=101	=101
2E-]	_
2r	.
=102	=102
1r	.
=103	=103
2.r	.
8E-	Let
8E-	me
=104	=104
8G-	show
8G-	you
8G-	the
4E-	world
8E-	in
4G-	my
=105	=105
2E-	eyes.
2r	.
=106	=106
1r	.
=107	=107
2.r	.
8E-	Let
8E-	me
=108	=108
8G-	show
8G-	you
8G-	the
4E-	world
8E-	in
4G-	my
=109	=109
2E-	eyes.
2r	.
=110	=110
1r	.
=111	=111
2.r	.
8E-	Let
8E-	me
=112	=112
8G-	show
8G-	you
8G-	the
4E-	world
8E-	in
8G-	my
[8E-	eyes.
=113	=113
2E-]	_
2r	.
=114	=114
1r	.
=115	=115
2.r	.
8E-	Let
8E-	me
=116	=116
8G-	show
8G-	you
8G-	the
4E-	world
8E-	in
[4G-	my
=117	=117
8G-]	_
[4.E-	eyes.
4E-]	_
4r	.
=118	=118
1r	.
=119	=119
2.r	.
8E-	Let
8E-	me
=120	=120
8G-	show
8G-	you
8G-	the
4E-	world
8E-	in
[4G-	my
=121	=121
8G-]	_
[4.E-	eyes.
4E-]	_
4r	.
=122	=122
1r	.
r;	.
r;	.
*-	*-
!!!ENC: Nathaniel Condit-Schultz